_includes/icons/ios-gorilla.svg

<svg fill="#666" height="50" viewBox="0 0 50 50" width="50" xmlns="http://www.w3.org/2000/svg"><path d="m30.375-.09375c-5.042969.0546875-8.199219 2.398438-9.96875 5.0625-1.550781 2.335938-2.027344 4.726563-2.25 6.28125-4.703125.640625-7.523437 2.515625-8.6875 4.96875-1.15625 2.4375-.65625 5.121094.40625 7.3125-.09375.578125-.09375 1.101563-.125 1.625-1.503906.171875-2.964844.65625-4.125 1.71875-1.304687 1.195313-2.085937 3.050781-2.0625 5.3125-1.878906 2.375-3.003906 5.707031-2.09375 10.40625-.304687.3125-.617187.613281-.84375 1-.34375.582031-.625 1.171875-.625 1.90625 0 1.28125.246094 2.332031.84375 3.125s1.542969 1.21875 2.5 1.28125c2.347656.101563 6.25.09375 7.75.09375.996094 0 1.84375-.535156 2.15625-1.1875s.25-1.222656.25-1.40625c0-1.347656-.914062-2.371094-2-3.25.558594-.539062 1.015625-1.164062 1.3125-1.8125.230469-.5.367188-1.003906.46875-1.46875.394531.074219.808594.148438 1.25.1875.671875.0625 1.246094-.042969 1.84375-.09375.4375 1.019531 1.058594 2.136719 1.90625 3.25-.261719.171875-.507812.355469-.6875.59375-.476562.628906-.683594 1.410156-.59375 2.1875.183594 1.554688 1.691406 3 4 3h6.1875c1.046875 0 1.957031-.242187 2.625-.8125.667969-.570312 1-1.425781 1-2.28125 0-1.707031-.628906-3.371094-1.8125-4.5625.101563-.792969-.007812-1.828125-.03125-2.8125 2.363281-1.335937 4.207031-2.59375 5.6875-3.78125.066406.152344.085938.449219.15625.5625.246094.402344.3125.445313.3125.40625 0 0 0 .035156 0 .03125-.292969 1.535156-.03125 3.210938.6875 4.8125.394531.882813.914063 1.730469 1.53125 2.5-.96875.730469-1.476562 1.902344-1.28125 3.03125.277344 1.578125 1.832031 2.90625 4.125 2.90625h6.21875c1.046875 0 1.957031-.242187 2.625-.8125.667969-.570312.96875-1.425781.96875-2.28125 0-1.71875-.652344-3.4375-1.9375-4.625-.574219-3.511719-1.285156-4.816406-2.34375-6.75.441406-2.292969.320313-4.527344-.1875-6.4375-.480469-1.808594-1.269531-3.265625-2.21875-4.3125.597656-2.542969.167969-4.761719-1.15625-6.3125-1.167969-1.367187-2.890625-2.214844-4.71875-2.90625.21875-.496094.359375-1.042969.375-1.5625.027344-.851562-.222656-1.65625-.625-2.375.054688-.492187.019531-.933594-.09375-1.3125.222656-.363281.34375-.746094.375-1.125.050781-.605469-.035156-1.222656-.21875-1.78125-.003906-.007812.003906-.023437 0-.03125-.601562-1.894531-1.65625-3.667969-2.84375-5.03125-1.195312-1.371094-2.472656-2.4375-4-2.4375-.011719 0-.019531 0-.03125 0zm.03125 2c.371094 0 1.496094.597656 2.5 1.75s1.9375 2.746094 2.4375 4.34375v.03125c.113281.335938.179688.707031.15625.96875-.011719.117188-.015625.082031-.03125.125-.476562.066406-1.117187.121094-1.84375.03125-.835937-.101562-1.574219-.273437-2.03125-.34375-.015625-.003906-.050781 0-.0625 0-.554687-.09375-1.140625-.042969-1.65625.1875-.535156.238281-1.027344.71875-1.1875 1.375s.019531 1.347656.40625 2c.304688.511719.867188 1.027344 1.46875 1.5625-.019531.167969-.183594.332031-.1875.5-.011719.511719.050781 1.046875.21875 1.59375s.421875 1.09375.84375 1.5625 1.070313.863281 1.8125.90625h.0625c1.015625 0 1.765625-.503906 2.34375-.9375.265625-.199219.269531-.25.4375-.40625 1.921875.65625 3.582031 1.511719 4.53125 2.625 1.035156 1.214844 1.445313 2.671875.71875 5.03125-.101562.359375.007813.746094.28125 1 .695313.65625 1.507813 2.046875 1.96875 3.78125.460938 1.734375.585938 3.800781.125 5.875-.058594.242188-.027344.5.09375.71875 1.210938 2.222656 1.726563 2.839844 2.3125 6.5625.035156.277344.179688.523438.40625.6875.933594.648438 1.46875 2.003906 1.46875 3.46875 0 .445313-.101562.628906-.28125.78125-.179687.152344-.5625.3125-1.3125.3125h-6.21875c-1.609375 0-2.058594-.679687-2.15625-1.25-.085937-.492187.183594-.957031.84375-1.21875.195313.15625.355469.359375.5625.5.457031.3125 1.078125.191406 1.390625-.265625s.191406-1.078125-.265625-1.390625c-1.207031-.816406-2.261719-2.191406-2.90625-3.625s-.851562-2.910156-.59375-3.875c.042969-.140625.054688-.292969.03125-.4375-.109375-.65625-.453125-.960937-.59375-1.1875-.121094-.195312-.226562-.496094-.28125-.96875.5-.488281 1.1875-1.003906 1.5625-1.46875 1.683594-2.089844 2.183594-4.039062 2.125-5.65625-.058594-1.9375-.902344-4.035156-1.6875-5.75s-1.5625-3.03125-1.5625-3.03125c-.285156-.476562-.902344-.628906-1.375-.34375-.476562.285156-.628906.898438-.34375 1.375 0 0 .730469 1.203125 1.46875 2.8125s1.457031 3.636719 1.5 5v.03125c.042969 1.183594-.246094 2.527344-1.6875 4.3125-1.273437 1.578125-3.699219 3.511719-7.3125 5.65625-.332031-1.792969-1.066406-3.675781-2.375-5.4375.894531-4.6875.003906-8.429687-2.78125-11.625-.222656-.304687-.597656-.457031-.972656-.394531-.371094.0625-.675781.332031-.789063.691406-.109375.359375-.007812.753906.261719 1.015625 2.527344 2.902344 3.238281 5.816406 2.28125 10.3125-.070312.296875 0 .605469.1875.84375 2.65625 3.296875 2.660156 7.296875 2.28125 9.84375-.046875.363281.109375.722656.40625.9375.84375.632813 1.40625 2.035156 1.40625 3.5 0 .445313-.101562.628906-.28125.78125-.179687.152344-.59375.3125-1.34375.3125h-6.1875c-1.589844 0-1.933594-.648437-2-1.21875-.035156-.285156.046875-.5625.1875-.75.105469-.140625.296875-.203125.5-.25.0625.042969.09375.113281.15625.15625.464844.300781 1.089844.167969 1.390625-.296875s.167969-1.089844-.296875-1.390625c-1.292969-.835937-2.324219-3.039062-3.03125-4.65625-.027344-.054687-.058594-.105469-.09375-.15625-.019531-.03125-.039062-.0625-.0625-.09375-.039062-.046875-.078125-.085937-.125-.125-.089844-.09375-.195312-.167969-.3125-.21875-1.371094-.644531-2.066406-1.886719-2.40625-3.21875s-.1875-2.804687-.0625-3.15625c.121094-.363281.023438-.765625-.25-1.03125-1.398437-1.347656-2.191406-2.421875-2.59375-3.5625-.183594-.523437-.28125-1.117187-.3125-1.75.042969-.164062.042969-.335937 0-.5.007813-.628906.042969-1.273437.1875-2.09375.042969-.222656.011719-.453125-.09375-.65625-.988281-1.84375-1.371094-4.136719-.5-5.96875s3.019531-3.488281 7.8125-3.96875c.472656-.039062.847656-.40625.90625-.875.140625-1.269531.613281-3.921875 2.09375-6.15625s3.855469-4.109375 8.3125-4.15625zm.5 8.875c.09375-.007812.199219-.019531.3125 0h.03125c.132813.019531.472656.082031.90625.15625-.027344.042969-.050781.09375-.0625.15625-.101562.398438.511719 1.007813 1.3125 1.40625 0 0 .289063-.5 1.1875-.5.269531-.039062.480469-.007812.65625.03125.03125.125.082031.238281.15625.34375.070313.09375.128906.226563.1875.375-.195312.027344-.367187.25-.59375.25-.398437 0-.507812-.1875-.90625-.1875-.398437 0-.5.199219-.5.5s.71875.59375.71875.59375l1.375-.21875c.023438-.042969.066406-.121094.09375-.1875.019531.148438.035156.289063.03125.4375 0 .046875-.027344.082031-.03125.125-.8125.003906-2.238281.207031-3.28125 1.34375-.097656-.332031-.164062-.6875-.15625-.9375.003906-.128906.042969-.214844.0625-.25.164063-.210937.234375-.476562.199219-.742187s-.175781-.503907-.386719-.664063c-.757812-.597656-1.199219-1.117187-1.40625-1.46875-.207031-.351562-.1875-.492187-.1875-.5 0-.007812-.03125.007813.0625-.03125.046875-.019531.125-.023437.21875-.03125zm4.28125.3125c.007813.09375.09375.285156.0625.375-.015625.0625-.027344.125-.03125.1875-.039062.015625-.070312.03125-.125.03125-.199219 0-.28125-.082031-.28125-.28125 0-.101562-.007812-.117187.09375-.21875-.199219.101563-.398437 0-.5 0-.101562 0-.304687.101563-.40625 0l.09375.125c0 .199219-.082031.28125-.28125.28125s-.3125-.082031-.3125-.28125c0-.066406.035156-.148437.09375-.1875.519531.035156 1.054688-.011719 1.59375-.03125zm.59375 3.125c-.066406.445313-.238281.796875-.46875.96875-.019531.007813-.042969.019531-.0625.03125-.011719.011719-.019531.019531-.03125.03125v.03125c-.019531.007813-.042969.019531-.0625.03125 0 0-.296875.308594-.71875.625-.414062.308594-.898437.550781-1.09375.5625-.007812 0-.023437 0-.03125 0-.121094-.011719-.203125-.074219-.3125-.1875.207031-.523437.875-1.6875 2.78125-2.09375zm-25.96875 12.9375c.070313.519531.109375 1.046875.28125 1.53125.496094 1.414063 1.496094 2.640625 2.78125 3.9375-.214844 1-.269531 2.234375.09375 3.65625.242188.949219.730469 1.890625 1.40625 2.75-.3125-.039062-.625-.074219-.875-.125-.347656-.070312-.640625-.214844-.59375-.1875-.34375-.195312-.773437-.167969-1.089844.066406-.320312.238282-.46875.640625-.378906 1.027344-.007812-.042969.003906.234375-.0625.5625s-.195312.734375-.375 1.125c-.359375.785156-.949219 1.453125-1.46875 1.65625-.367187.132813-.625.464844-.660156.855469s.164062.765625.503906.957031c1.347656.808594 2.125 1.847656 2.125 2.4375 0 .316406-.019531.539063-.03125.5625-.011719.023438.128906.03125-.375.03125-1.492187 0-5.371094.003906-7.625-.09375-.011719 0-.019531 0-.03125 0-.515625-.039062-.777344-.171875-1-.46875-.230469-.304687-.4375-.917969-.4375-1.9375 0-.066406.113281-.515625.34375-.90625s.585938-.757812.75-.875c.320313-.238281.464844-.644531.375-1.03125-1.046875-4.660156.0625-7.316406 1.8125-9.4375.164063-.203125.242188-.460937.21875-.71875-.132812-1.996094.5-3.296875 1.46875-4.1875.757813-.695312 1.777344-1.03125 2.84375-1.1875z"/></svg>

<svg xmlns="http://www.w3.org/2000/svg" viewBox="0 0 50 50" width="50" height="50" fill="#666"><path d="M 30.375 -0.09375 C 25.332031 -0.0390625 22.175781 2.304688 20.40625 4.96875 C 18.855469 7.304688 18.378906 9.695313 18.15625 11.25 C 13.453125 11.890625 10.632813 13.765625 9.46875 16.21875 C 8.3125 18.65625 8.8125 21.339844 9.875 23.53125 C 9.78125 24.109375 9.78125 24.632813 9.75 25.15625 C 8.246094 25.328125 6.785156 25.8125 5.625 26.875 C 4.320313 28.070313 3.539063 29.925781 3.5625 32.1875 C 1.683594 34.5625 0.558594 37.894531 1.46875 42.59375 C 1.164063 42.90625 0.851563 43.207031 0.625 43.59375 C 0.28125 44.175781 0 44.765625 0 45.5 C 0 46.78125 0.246094 47.832031 0.84375 48.625 C 1.441406 49.417969 2.386719 49.84375 3.34375 49.90625 C 5.691406 50.007813 9.59375 50 11.09375 50 C 12.089844 50 12.9375 49.464844 13.25 48.8125 C 13.5625 48.160156 13.5 47.589844 13.5 47.40625 C 13.5 46.058594 12.585938 45.035156 11.5 44.15625 C 12.058594 43.617188 12.515625 42.992188 12.8125 42.34375 C 13.042969 41.84375 13.179688 41.339844 13.28125 40.875 C 13.675781 40.949219 14.089844 41.023438 14.53125 41.0625 C 15.203125 41.125 15.777344 41.019531 16.375 40.96875 C 16.8125 41.988281 17.433594 43.105469 18.28125 44.21875 C 18.019531 44.390625 17.773438 44.574219 17.59375 44.8125 C 17.117188 45.441406 16.910156 46.222656 17 47 C 17.183594 48.554688 18.691406 50 21 50 L 27.1875 50 C 28.234375 50 29.144531 49.757813 29.8125 49.1875 C 30.480469 48.617188 30.8125 47.761719 30.8125 46.90625 C 30.8125 45.199219 30.183594 43.535156 29 42.34375 C 29.101563 41.550781 28.992188 40.515625 28.96875 39.53125 C 31.332031 38.195313 33.175781 36.9375 34.65625 35.75 C 34.722656 35.902344 34.742188 36.199219 34.8125 36.3125 C 35.058594 36.714844 35.125 36.757813 35.125 36.71875 C 35.125 36.71875 35.125 36.753906 35.125 36.75 C 34.832031 38.285156 35.09375 39.960938 35.8125 41.5625 C 36.207031 42.445313 36.726563 43.292969 37.34375 44.0625 C 36.375 44.792969 35.867188 45.964844 36.0625 47.09375 C 36.339844 48.671875 37.894531 50 40.1875 50 L 46.40625 50 C 47.453125 50 48.363281 49.757813 49.03125 49.1875 C 49.699219 48.617188 50 47.761719 50 46.90625 C 50 45.1875 49.347656 43.46875 48.0625 42.28125 C 47.488281 38.769531 46.777344 37.464844 45.71875 35.53125 C 46.160156 33.238281 46.039063 31.003906 45.53125 29.09375 C 45.050781 27.285156 44.261719 25.828125 43.3125 24.78125 C 43.910156 22.238281 43.480469 20.019531 42.15625 18.46875 C 40.988281 17.101563 39.265625 16.253906 37.4375 15.5625 C 37.65625 15.066406 37.796875 14.519531 37.8125 14 C 37.839844 13.148438 37.589844 12.34375 37.1875 11.625 C 37.242188 11.132813 37.207031 10.691406 37.09375 10.3125 C 37.316406 9.949219 37.4375 9.566406 37.46875 9.1875 C 37.519531 8.582031 37.433594 7.964844 37.25 7.40625 C 37.246094 7.398438 37.253906 7.382813 37.25 7.375 C 36.648438 5.480469 35.59375 3.707031 34.40625 2.34375 C 33.210938 0.972656 31.933594 -0.09375 30.40625 -0.09375 C 30.394531 -0.09375 30.386719 -0.09375 30.375 -0.09375 Z M 30.40625 1.90625 C 30.777344 1.90625 31.902344 2.503906 32.90625 3.65625 C 33.910156 4.808594 34.84375 6.402344 35.34375 8 C 35.34375 8.011719 35.34375 8.019531 35.34375 8.03125 C 35.457031 8.367188 35.523438 8.738281 35.5 9 C 35.488281 9.117188 35.484375 9.082031 35.46875 9.125 C 34.992188 9.191406 34.351563 9.246094 33.625 9.15625 C 32.789063 9.054688 32.050781 8.882813 31.59375 8.8125 C 31.578125 8.808594 31.542969 8.8125 31.53125 8.8125 C 30.976563 8.71875 30.390625 8.769531 29.875 9 C 29.339844 9.238281 28.847656 9.71875 28.6875 10.375 C 28.527344 11.03125 28.707031 11.722656 29.09375 12.375 C 29.398438 12.886719 29.960938 13.402344 30.5625 13.9375 C 30.542969 14.105469 30.378906 14.269531 30.375 14.4375 C 30.363281 14.949219 30.425781 15.484375 30.59375 16.03125 C 30.761719 16.578125 31.015625 17.125 31.4375 17.59375 C 31.859375 18.0625 32.507813 18.457031 33.25 18.5 C 33.269531 18.5 33.292969 18.5 33.3125 18.5 C 34.328125 18.5 35.078125 17.996094 35.65625 17.5625 C 35.921875 17.363281 35.925781 17.3125 36.09375 17.15625 C 38.015625 17.8125 39.675781 18.667969 40.625 19.78125 C 41.660156 20.996094 42.070313 22.453125 41.34375 24.8125 C 41.242188 25.171875 41.351563 25.558594 41.625 25.8125 C 42.320313 26.46875 43.132813 27.859375 43.59375 29.59375 C 44.054688 31.328125 44.179688 33.394531 43.71875 35.46875 C 43.660156 35.710938 43.691406 35.96875 43.8125 36.1875 C 45.023438 38.410156 45.539063 39.027344 46.125 42.75 C 46.160156 43.027344 46.304688 43.273438 46.53125 43.4375 C 47.464844 44.085938 48 45.441406 48 46.90625 C 48 47.351563 47.898438 47.535156 47.71875 47.6875 C 47.539063 47.839844 47.15625 48 46.40625 48 L 40.1875 48 C 38.578125 48 38.128906 47.320313 38.03125 46.75 C 37.945313 46.257813 38.214844 45.792969 38.875 45.53125 C 39.070313 45.6875 39.230469 45.890625 39.4375 46.03125 C 39.894531 46.34375 40.515625 46.222656 40.828125 45.765625 C 41.140625 45.308594 41.019531 44.6875 40.5625 44.375 C 39.355469 43.558594 38.300781 42.183594 37.65625 40.75 C 37.011719 39.316406 36.804688 37.839844 37.0625 36.875 C 37.105469 36.734375 37.117188 36.582031 37.09375 36.4375 C 36.984375 35.78125 36.640625 35.476563 36.5 35.25 C 36.378906 35.054688 36.273438 34.753906 36.21875 34.28125 C 36.71875 33.792969 37.40625 33.277344 37.78125 32.8125 C 39.464844 30.722656 39.964844 28.773438 39.90625 27.15625 C 39.847656 25.21875 39.003906 23.121094 38.21875 21.40625 C 37.433594 19.691406 36.65625 18.375 36.65625 18.375 C 36.371094 17.898438 35.753906 17.746094 35.28125 18.03125 C 34.804688 18.316406 34.652344 18.929688 34.9375 19.40625 C 34.9375 19.40625 35.667969 20.609375 36.40625 22.21875 C 37.144531 23.828125 37.863281 25.855469 37.90625 27.21875 C 37.90625 27.230469 37.90625 27.238281 37.90625 27.25 C 37.949219 28.433594 37.660156 29.777344 36.21875 31.5625 C 34.945313 33.140625 32.519531 35.074219 28.90625 37.21875 C 28.574219 35.425781 27.839844 33.542969 26.53125 31.78125 C 27.425781 27.09375 26.535156 23.351563 23.75 20.15625 C 23.527344 19.851563 23.152344 19.699219 22.777344 19.761719 C 22.40625 19.824219 22.101563 20.09375 21.988281 20.453125 C 21.878906 20.8125 21.980469 21.207031 22.25 21.46875 C 24.777344 24.371094 25.488281 27.285156 24.53125 31.78125 C 24.460938 32.078125 24.53125 32.386719 24.71875 32.625 C 27.375 35.921875 27.378906 39.921875 27 42.46875 C 26.953125 42.832031 27.109375 43.191406 27.40625 43.40625 C 28.25 44.039063 28.8125 45.441406 28.8125 46.90625 C 28.8125 47.351563 28.710938 47.535156 28.53125 47.6875 C 28.351563 47.839844 27.9375 48 27.1875 48 L 21 48 C 19.410156 48 19.066406 47.351563 19 46.78125 C 18.964844 46.496094 19.046875 46.21875 19.1875 46.03125 C 19.292969 45.890625 19.484375 45.828125 19.6875 45.78125 C 19.75 45.824219 19.78125 45.894531 19.84375 45.9375 C 20.308594 46.238281 20.933594 46.105469 21.234375 45.640625 C 21.535156 45.175781 21.402344 44.550781 20.9375 44.25 C 19.644531 43.414063 18.613281 41.210938 17.90625 39.59375 C 17.878906 39.539063 17.847656 39.488281 17.8125 39.4375 C 17.792969 39.40625 17.773438 39.375 17.75 39.34375 C 17.710938 39.296875 17.671875 39.257813 17.625 39.21875 C 17.535156 39.125 17.429688 39.050781 17.3125 39 C 15.941406 38.355469 15.246094 37.113281 14.90625 35.78125 C 14.566406 34.449219 14.71875 32.976563 14.84375 32.625 C 14.964844 32.261719 14.867188 31.859375 14.59375 31.59375 C 13.195313 30.246094 12.402344 29.171875 12 28.03125 C 11.816406 27.507813 11.71875 26.914063 11.6875 26.28125 C 11.730469 26.117188 11.730469 25.945313 11.6875 25.78125 C 11.695313 25.152344 11.730469 24.507813 11.875 23.6875 C 11.917969 23.464844 11.886719 23.234375 11.78125 23.03125 C 10.792969 21.1875 10.410156 18.894531 11.28125 17.0625 C 12.152344 15.230469 14.300781 13.574219 19.09375 13.09375 C 19.566406 13.054688 19.941406 12.6875 20 12.21875 C 20.140625 10.949219 20.613281 8.296875 22.09375 6.0625 C 23.574219 3.828125 25.949219 1.953125 30.40625 1.90625 Z M 30.90625 10.78125 C 31 10.773438 31.105469 10.761719 31.21875 10.78125 C 31.230469 10.78125 31.238281 10.78125 31.25 10.78125 C 31.382813 10.800781 31.722656 10.863281 32.15625 10.9375 C 32.128906 10.980469 32.105469 11.03125 32.09375 11.09375 C 31.992188 11.492188 32.605469 12.101563 33.40625 12.5 C 33.40625 12.5 33.695313 12 34.59375 12 C 34.863281 11.960938 35.074219 11.992188 35.25 12.03125 C 35.28125 12.15625 35.332031 12.269531 35.40625 12.375 C 35.476563 12.46875 35.535156 12.601563 35.59375 12.75 C 35.398438 12.777344 35.226563 13 35 13 C 34.601563 13 34.492188 12.8125 34.09375 12.8125 C 33.695313 12.8125 33.59375 13.011719 33.59375 13.3125 C 33.59375 13.613281 34.3125 13.90625 34.3125 13.90625 L 35.6875 13.6875 C 35.710938 13.644531 35.753906 13.566406 35.78125 13.5 C 35.800781 13.648438 35.816406 13.789063 35.8125 13.9375 C 35.8125 13.984375 35.785156 14.019531 35.78125 14.0625 C 34.96875 14.066406 33.542969 14.269531 32.5 15.40625 C 32.402344 15.074219 32.335938 14.71875 32.34375 14.46875 C 32.347656 14.339844 32.386719 14.253906 32.40625 14.21875 C 32.570313 14.007813 32.640625 13.742188 32.605469 13.476563 C 32.570313 13.210938 32.429688 12.972656 32.21875 12.8125 C 31.460938 12.214844 31.019531 11.695313 30.8125 11.34375 C 30.605469 10.992188 30.625 10.851563 30.625 10.84375 C 30.625 10.835938 30.59375 10.851563 30.6875 10.8125 C 30.734375 10.792969 30.8125 10.789063 30.90625 10.78125 Z M 35.1875 11.09375 C 35.195313 11.1875 35.28125 11.378906 35.25 11.46875 C 35.234375 11.53125 35.222656 11.59375 35.21875 11.65625 C 35.179688 11.671875 35.148438 11.6875 35.09375 11.6875 C 34.894531 11.6875 34.8125 11.605469 34.8125 11.40625 C 34.8125 11.304688 34.804688 11.289063 34.90625 11.1875 C 34.707031 11.289063 34.507813 11.1875 34.40625 11.1875 C 34.304688 11.1875 34.101563 11.289063 34 11.1875 L 34.09375 11.3125 C 34.09375 11.511719 34.011719 11.59375 33.8125 11.59375 C 33.613281 11.59375 33.5 11.511719 33.5 11.3125 C 33.5 11.246094 33.535156 11.164063 33.59375 11.125 C 34.113281 11.160156 34.648438 11.113281 35.1875 11.09375 Z M 35.78125 14.21875 C 35.714844 14.664063 35.542969 15.015625 35.3125 15.1875 C 35.292969 15.195313 35.269531 15.207031 35.25 15.21875 C 35.238281 15.230469 35.230469 15.238281 35.21875 15.25 C 35.21875 15.261719 35.21875 15.269531 35.21875 15.28125 C 35.199219 15.289063 35.175781 15.300781 35.15625 15.3125 C 35.15625 15.3125 34.859375 15.621094 34.4375 15.9375 C 34.023438 16.246094 33.539063 16.488281 33.34375 16.5 C 33.335938 16.5 33.320313 16.5 33.3125 16.5 C 33.191406 16.488281 33.109375 16.425781 33 16.3125 C 33.207031 15.789063 33.875 14.625 35.78125 14.21875 Z M 9.8125 27.15625 C 9.882813 27.675781 9.921875 28.203125 10.09375 28.6875 C 10.589844 30.101563 11.589844 31.328125 12.875 32.625 C 12.660156 33.625 12.605469 34.859375 12.96875 36.28125 C 13.210938 37.230469 13.699219 38.171875 14.375 39.03125 C 14.0625 38.992188 13.75 38.957031 13.5 38.90625 C 13.152344 38.835938 12.859375 38.691406 12.90625 38.71875 C 12.5625 38.523438 12.132813 38.550781 11.816406 38.785156 C 11.496094 39.023438 11.347656 39.425781 11.4375 39.8125 C 11.429688 39.769531 11.441406 40.046875 11.375 40.375 C 11.308594 40.703125 11.179688 41.109375 11 41.5 C 10.640625 42.285156 10.050781 42.953125 9.53125 43.15625 C 9.164063 43.289063 8.90625 43.621094 8.871094 44.011719 C 8.835938 44.402344 9.035156 44.777344 9.375 44.96875 C 10.722656 45.777344 11.5 46.816406 11.5 47.40625 C 11.5 47.722656 11.480469 47.945313 11.46875 47.96875 C 11.457031 47.992188 11.597656 48 11.09375 48 C 9.601563 48 5.722656 48.003906 3.46875 47.90625 C 3.457031 47.90625 3.449219 47.90625 3.4375 47.90625 C 2.921875 47.867188 2.660156 47.734375 2.4375 47.4375 C 2.207031 47.132813 2 46.519531 2 45.5 C 2 45.433594 2.113281 44.984375 2.34375 44.59375 C 2.574219 44.203125 2.929688 43.835938 3.09375 43.71875 C 3.414063 43.480469 3.558594 43.074219 3.46875 42.6875 C 2.421875 38.027344 3.53125 35.371094 5.28125 33.25 C 5.445313 33.046875 5.523438 32.789063 5.5 32.53125 C 5.367188 30.535156 6 29.234375 6.96875 28.34375 C 7.726563 27.648438 8.746094 27.3125 9.8125 27.15625 Z"/></svg>
